src/images/outline-code.svg

<svg width="32" height="32" viewBox="0 0 32 32" fill="none" xmlns="http://www.w3.org/2000/svg">
<path fill-rule="evenodd" clip-rule="evenodd" d="M12.5346 22.1333L6.4013 16L12.5346 9.86667L10.668 8L2.66797 16L10.668 24L12.5346 22.1333ZM19.468 22.1333L25.6013 16L19.468 9.86667L21.3346 8L29.3346 16L21.3346 24L19.468 22.1333Z" fill="#020201"/>
</svg>

<svg width="32" height="32" viewBox="0 0 32 32" fill="none" xmlns="http://www.w3.org/2000/svg"><path fill-rule="evenodd" clip-rule="evenodd" d="M12.535 22.133L6.4 16l6.134-6.133L10.668 8l-8 8 8 8 1.867-1.867zm6.933 0L25.601 16l-6.133-6.133L21.335 8l8 8-8 8-1.867-1.867z" fill="#020201"/></svg>
